libs/ui/packages/crypto-icons/src/svg/EON.svg

<svg width="24" height="24" viewBox="0 0 24 24" fill="none">
<path fill-rule="evenodd" clip-rule="evenodd" d="M12.5306 3.50772C13.6384 5.12322 16.1771 8.81397 16.1771 8.81397V8.81547C16.2932 8.97847 16.3508 9.08273 16.3557 9.19932L16.3616 9.18373C16.3616 9.18373 17.4694 14.445 17.9771 16.7992C18.0694 17.1217 17.9771 17.307 17.6539 17.4915C16.0505 18.4368 12.982 20.3712 12.3307 20.7825C12.2456 20.8581 12.137 20.9024 12.0229 20.9077C11.9626 20.9077 11.8629 20.8879 11.7881 20.8484L11.7919 20.8605C11.7919 20.8605 8.14536 18.5527 6.34536 17.4915C6.02286 17.307 5.93061 17.1217 6.02286 16.7992C6.57711 14.445 7.68411 9.13798 7.68411 9.13798L7.69303 9.16592C7.70667 9.06197 7.76398 8.96261 7.86937 8.81547C7.86937 8.81547 10.4074 5.07672 11.5151 3.50772C11.7004 3.23097 11.8841 3.09222 12.0229 3.09222C12.1616 3.09222 12.2996 3.23022 12.5306 3.50772ZM8.00706 10.1571C7.49891 12.28 6.99155 14.6317 6.53061 16.7992C6.53061 16.8915 6.53061 17.0302 6.71511 17.1682C7.05456 17.4057 7.41829 17.6181 7.77062 17.8239C7.89783 17.8981 8.02356 17.9716 8.14611 18.045C8.73168 18.4017 9.38758 18.8004 10.0363 19.1948C10.5273 19.4933 11.0141 19.7893 11.4633 20.0626C11.1522 19.1353 10.6152 17.5436 10.3616 16.8457C9.76696 15.0629 8.48465 11.485 8.00706 10.1571ZM12.6059 20.0204C13.1476 19.6906 13.741 19.3298 14.3286 18.9726C14.8556 18.6523 15.3778 18.3348 15.8539 18.045C15.9781 17.9704 16.1058 17.8959 16.2349 17.8204C16.5853 17.6157 16.9471 17.4044 17.2841 17.1682C17.4694 17.0302 17.4694 16.8915 17.4694 16.7992C17.0135 14.6588 16.513 12.3388 16.012 10.2369C15.5149 11.6297 14.268 15.1315 13.6841 16.8465C13.4658 17.5334 12.9296 19.0878 12.6059 20.0204ZM8.61103 9.46048C9.74227 12.7241 10.8795 15.9856 12.0229 19.245C12.9577 16.4802 14.8957 10.7797 15.3443 9.46048H8.61103ZM8.673 8.95273C9.23585 8.12911 11.1544 5.3209 11.9771 4.10622C12.7992 5.3209 14.7177 8.12911 15.2805 8.95273H8.673Z" fill="#443F54"/>
</svg>

<svg width="24" height="24" viewBox="0 0 24 24" fill="none"><path fill="#443f54" fill-rule="evenodd" d="M12.53 3.508c1.108 1.615 3.647 5.306 3.647 5.306v.001c.116.163.174.268.179.384l.006-.015s1.107 5.261 1.615 7.615c.092.323 0 .508-.323.692-1.604.946-4.672 2.88-5.323 3.291a.5.5 0 0 1-.308.126c-.06 0-.16-.02-.235-.06l.004.012s-3.647-2.307-5.447-3.369c-.322-.184-.414-.37-.322-.692.554-2.354 1.661-7.661 1.661-7.661l.009.028c.014-.104.071-.203.176-.35 0 0 2.538-3.74 3.646-5.308.185-.277.37-.416.508-.416.139 0 .277.138.508.416m-4.523 6.65a277 277 0 0 0-1.476 6.641c0 .093 0 .231.184.37.34.237.703.45 1.056.655l.375.221 1.89 1.15 1.427.868a193 193 0 0 0-1.101-3.217c-.595-1.783-1.877-5.361-2.355-6.689m4.599 9.862 3.248-1.975q.187-.112.38-.225c.351-.204.713-.416 1.05-.652.185-.138.185-.276.185-.369-.456-2.14-.956-4.46-1.457-6.562a650 650 0 0 0-2.328 6.61c-.218.686-.754 2.24-1.078 3.173M8.61 9.46q1.696 4.896 3.412 9.785c.935-2.765 2.873-8.465 3.321-9.785zm.062-.507c.563-.824 2.481-3.632 3.304-4.847.822 1.215 2.74 4.023 3.303 4.847z" clip-rule="evenodd"/></svg>
